X:1
T:Title
%%score 1 2
L:1/8
Q:1/4=97
M:4/4
K:Bb
V:1 treble nm="Grand Piano, Soprano"
V:2 bass nm="Choir Pad, Hear Ye Him (Thompson)"
V:1
 [DF][DF] [DF]2 [DB][Ec] [DB]2 | [DF][DB] [Ec]2 [EB][EG] [DF]2 | [DF][DB] [Fd]2 [Fd][Fd] [Fd]2- | %3
w: By~Edgar~Craig * * * * *|||
 [Fd][FB] [Fc]6 | [DF][EG] [DF]2 [DB][Ec] [Fd]2 | [Fd][DB] [Ec]2 [EB][EG] [DF]2 | %6
w: |||
 [DB][Ec] [Fd]2 [DF][DB] [Fd]2- | [Fd][Ec] [DB]6 | [DF][DF] [DB]6 | [DF][DB] [Fd]6 | %10
w: ||||
 [DB][Ec] [Fd]2 [Fd][Fd] [Fd]2- | [Fd][FB] [Fc]6 | [DF][DB] [Fd]6 | [DB][Fd] [Ge]6 | %14
w: ||||
 [DB][Ec] [Fd]2 [DF][DB] [Fd]2- | [Fd][Ec] [DB]6- | [DB]2 z2 z4 |] %17
w: |||
V:2
 [B,,B,][B,,B,] [B,,B,]2 [B,,F,][B,,F,] [B,,F,]2 | [B,,B,][B,,F,] [E,G,]2 [E,G,][E,B,] [B,,B,]2 | %2
 [B,,B,][B,,B,] [B,,B,]2 [B,,B,][B,,B,] [B,,B,]2- | [B,,B,][D,B,] [F,A,]6 | %4
 [B,,B,][B,,B,] [B,,B,]2 [B,,F,][B,,F,] [B,,B,]2 | [B,,B,][B,,F,] [E,G,]2 [E,G,][E,B,] [B,,B,]2 | %6
 [B,,F,][B,,F,] [B,,B,]2 [D,B,][G,B,] [F,B,]2- | [F,B,][F,A,] [B,,B,]6 | %8
 z4 [B,,F,][B,,F,] [B,,F,]2 | z4 [B,,B,][B,,B,] [B,,B,]2 | %10
 [B,,F,][B,,F,] [B,,B,]2 [B,,B,][B,,B,] [B,,B,]2- | [B,,B,][D,B,] [F,A,]6 | %12
 z4 [B,,B,][B,,B,] [B,,B,]2 | z4 [E,B,][E,B,] [E,B,]2 | %14
 [B,,F,][B,,F,] [B,,B,]2 [D,B,][G,B,] [F,B,]2- | [F,B,][F,A,] [B,,B,]6- | [B,,B,]2 z2 z4 |] %17

